/* XPM */
static char *class[] = {
/* columns rows colors chars-per-pixel */
"16 16 45 1 ",
"  c None",
". c #AB7671",
"X c #AC7771",
"o c #AC7772",
"O c #AE7973",
"+ c #AF7874",
"@ c #AF7974",
"# c #A67D7C",
"$ c #B17C71",
"% c #B37E73",
"& c #B17A75",
"* c #B17976",
"= c #B77F7A",
"- c #B87E79",
"; c #A3854E",
": c #A3864E",
"> c #A5864E",
", c #A08657",
"< c #A78851",
"1 c #A48C5D",
"2 c #A58D5E",
"3 c #BB985A",
"4 c #BB8574",
"5 c #B78079",
"6 c #CE9B76",
"7 c #CEA763",
"8 c #D1AA64",
"9 c #EEC074",
"0 c #F0C373",
"q c #7A8A93",
"w c #74889B",
"e c #70899D",
"r c #AE8180",
"t c #B19FA8",
"y c #C38781",
"u c #C48782",
"i c #EDA49D",
"p c #EEA49E",
"a c #FBADA6",
"s c #FFB0A9",
"d c #A7C3D3",
"f c #A8C2D2",
"g c #A8C4D3",
"h c #A8CAE5",
"j c #A7CDEA",
/* pixels */
"       <        ",
"      :3:       ",
"     :708:      ",
"    :70008:     ",
"   :7000008:    ",
"  <300000003<   ",
"eeq,700096$o+-  ",
"ejjg27094upapu$ ",
"ejjjg276usssssu=",
"ejjjjd2$psssssp+",
"ejjjjjgoasssssao",
"ejjjjjjrpsssssp+",
"ejjjjjjtusssssu5",
"ejjjjjjh#upapu$ ",
"eeeeeeeee=+o+5  ",
"                "
};
