/* XPM */
static char *dummy[]={
"16 16 24 1",
". c None",
"# c None",
"e c #808080",
"b c #8ebe75",
"n c #999791",
"d c #999990",
"i c #999999",
"t c #9ba9c4",
"m c #9fb1b3",
"a c #a6a677",
"r c #b3b1ac",
"j c #b3b3a8",
"u c #b3b3b3",
"s c #b4cef0",
"f c #c3bba6",
"v c #cad9d9",
"c c #cae8ac",
"k c #ccccc2",
"g c #cccccc",
"o c #d1977d",
"q c #d6d6d6",
"h c #dae6e6",
"l c #e0e0e0",
"p c #e9c0b4",
"................",
"................",
"#####abba#######",
"####bccccde#####",
"###accccfghi####",
"###djkckilhm####",
"#noppoimmiqqe###",
"#oppprstqimhi###",
"oppppmstutihu###",
"oppppmmgvgghhe##",
"oppppmiqittuhi##",
"nopppiumsssihg##",
"#nopiihmtstehhi#",
"###neiiieietiiie",
"................",
"................"};
