/* XPM */
static char *constant[] = {
/* columns rows colors chars-per-pixel */
"16 16 29 1 ",
"  c None",
". c #AB4B42",
"X c #AE4C43",
"o c #AE4D43",
"O c #AE4C44",
"+ c #AF4D44",
"@ c #B04D44",
"# c #B14E45",
"$ c #B24E46",
"% c #B34E46",
"& c #B44F46",
"* c #B65047",
"= c #B75047",
"- c #B75048",
"; c #C0544B",
": c #C2554B",
"> c #C9584E",
", c #CA594E",
"< c #D15C51",
"1 c #D25C52",
"2 c #D85F54",
"3 c #D95F54",
"4 c #EF695D",
"5 c #F0695D",
"6 c #F46B5F",
"7 c #F56C5F",
"8 c #F96D61",
"9 c #FA6E61",
"0 c #FF7063",
/* pixels */
"                ",
"                ",
"        *       ",
"        +       ",
"       +1$      ",
"       ;0;      ",
"      +406+     ",
"     -,000,-    ",
"     +60006+    ",
"    $1000001*   ",
"    $8000008$   ",
"   $300000003$  ",
"   +++++++++++  ",
"                ",
"                ",
"                "
};
