/* XPM */
static char *file[] = {
/* columns rows colors chars-per-pixel */
"16 16 9 1 ",
"  c None",
". c #6D6D6D",
"X c #717171",
"o c #727272",
"O c gray45",
"+ c #8D8D8D",
"@ c #A9A9A9",
"# c #AAAAAA",
"$ c #ECECEC",
/* pixels */
" .........X     ",
" .$$$$$$$+#X    ",
" .$$$$$$$+$#X   ",
" .$$$$$$$+$$#X  ",
" .$$$$$$$++++.  ",
" .$$$$$$$$$$$.  ",
" .$$$$$$$$$$$.  ",
" .$$$$$$$$$$$.  ",
" .$$$$$$$$$$$.  ",
" .$$$$$$$$$$$.  ",
" .$$$$$$$$$$$.  ",
" .$$$$$$$$$$$.  ",
" .$$$$$$$$$$$.  ",
" .$$$$$$$$$$$.  ",
" .............  ",
"                "
};
