/* XPM */
static char *fix[] = {
/* columns rows colors chars-per-pixel */
"16 16 58 1 ",
"  c None",
". c #8C752A",
"X c #8C762A",
"o c #8C762B",
"O c #8D782B",
"+ c #8D782C",
"@ c #8E792C",
"# c #8F7A2D",
"$ c #8E7B2D",
"% c #8F7B2D",
"& c #8F7A2E",
"* c #907B2D",
"= c #907A2E",
"- c #907B2E",
"; c #907C2E",
": c #927C2F",
"> c #917D30",
", c #8B7F58",
"< c #938030",
"1 c #948031",
"2 c #A4933C",
"3 c #B1A44B",
"4 c #B0A34C",
"5 c #BCB04D",
"6 c #C8BE55",
"7 c #D8D161",
"8 c #D9D161",
"9 c #DFD965",
"0 c #E9E56D",
"q c #EAE66D",
"w c #EDEA70",
"e c #EEEA70",
"r c #EFEC70",
"t c #F0ED71",
"y c #F4F275",
"u c #F5F375",
"i c #F7F677",
"p c #F8F77F",
"a c #FBFA79",
"s c #FFFF7C",
"d c #8D8D8D",
"f c #8E8E8E",
"g c gray56",
"h c #929292",
"j c #B6AA83",
"k c #F8F780",
"l c #FFFF98",
"z c #FFFFA5",
"x c #FFFFA6",
"c c #FFFFB6",
"v c gray81",
"b c #D2D2D2",
"n c #EFECC0",
"m c #FEFEC4",
"M c #FFFFD6",
"N c #FFFFF9",
"B c #FFFFFE",
"V c white",
/* pixels */
"      ::X::     ",
"     &6wsw6&    ",
"    1tslclst1   ",
"   :8sxBBBxs8>  ",
"   XisMBBBMsiX  ",
"   &wsmBBBmsw&  ",
"   &5sknBnps5&  ",
"    &qsiqisq&   ",
"     2sswss2    ",
"     &9sws9&    ",
"      4sws4     ",
"      ,jjj,     ",
"      gbbbg     ",
"      gvbvg     ",
"      hgggh     ",
"                "
};
