/* XPM */
static char *folder[] = {
/* columns rows colors chars-per-pixel */
"16 16 7 1 ",
"  c None",
". c #A89453",
"X c #AD9856",
"o c #BCA55D",
"O c #D5BA69",
"+ c #EDD075",
"@ c #FBDC7C",
/* pixels */
"                ",
"                ",
"......          ",
".@@@@+X         ",
".OOOOOo........ ",
".@@@@@@@@@@@@@. ",
".@@@@@@@@@@@@@. ",
".@@@@@@@@@@@@@. ",
".@@@@@@@@@@@@@. ",
".@@@@@@@@@@@@@. ",
".@@@@@@@@@@@@@. ",
".@@@@@@@@@@@@@. ",
".@@@@@@@@@@@@@. ",
"............... ",
"                ",
"                "
};
