/* XPM */
static char *interface[] = {
/* columns rows colors chars-per-pixel */
"16 16 16 1 ",
"  c None",
". c #808080",
"X c #818181",
"o c gray51",
"O c #838383",
"+ c gray52",
"@ c #868686",
"# c gray53",
"$ c #888888",
"% c #B4B4B4",
"& c gray79",
"* c #CACACA",
"= c #CBCBCB",
"- c gray88",
"; c #E1E1E1",
": c gray90",
/* pixels */
"                ",
"                ",
"                ",
"                ",
"           ...  ",
" ...      $*:*$ ",
".%:%......*:::*.",
".:::.::::.:::::.",
".%:%......*:::*.",
" ..$      $*:*$ ",
"           ...  ",
"                ",
"                ",
"                ",
"                ",
"                "
};
