/* XPM */
static char *method[] = {
/* columns rows colors chars-per-pixel */
"16 16 21 1 ",
"  c None",
". c #AB7671",
"X c #AC7672",
"o c #AC7772",
"O c #AE7873",
"+ c #AE7874",
"@ c #AE7974",
"# c #AF7974",
"$ c #AF7975",
"% c #B07974",
"& c #B47D77",
"* c #B57D77",
"= c #B57D78",
"- c #B67E78",
"; c #D5938D",
": c #D6948E",
"> c #ECA39C",
", c #EDA49D",
"< c #F3A8A1",
"1 c #FDAFA8",
"2 c #FFB0A9",
/* pixels */
"                ",
"                ",
"                ",
"                ",
"        %#o#-   ",
"       %:<1<:#  ",
"      %,22222,# ",
"     %:2222222:%",
"     #<2222222<#",
"     o122222221o",
"     #<2222222<#",
"     %:2222222:-",
"      #,22222,# ",
"       #:<1<:#  ",
"        %#o#-   ",
"                "
};
