/* XPM */
static char *module[] = {
/* columns rows colors chars-per-pixel */
"16 16 29 1 ",
"  c None",
". c #5C6192",
"X c #5D6193",
"o c #5D6293",
"O c #5E6393",
"+ c #5E6294",
"@ c #5E6494",
"# c #5F6494",
"$ c #606494",
"% c #606495",
"& c #626796",
"* c #676A98",
"= c #6B719C",
"- c #6C719C",
"; c #7479A2",
": c #7579A2",
"> c #7E82A8",
", c #8185AB",
"< c #8286AB",
"1 c #8387AB",
"2 c #8286AC",
"3 c #8E90B3",
"4 c #8E91B3",
"5 c #8E92B3",
"6 c #9296B5",
"7 c #9395B6",
"8 c #9396B7",
"9 c #9598B8",
"0 c #979AB9",
/* pixels */
"                ",
"                ",
"   ....  ....   ",
"   .03.  .30.   ",
"   .03.  .30.   ",
"   .002--200.   ",
"%*:>00000000>:*.",
".60000000000006.",
"%26000000000062.",
" %.%00000000%.. ",
"   .002--200.   ",
"   .03.  .30.   ",
"   .03.  .30.   ",
"   ....  ....   ",
"                ",
"                "
};
