/* XPM */
static char *operator[] = {
/* columns rows colors chars-per-pixel */
"16 16 23 1 ",
"  c None",
". c #AB8249",
"X c #AB8349",
"o c #AF854A",
"O c #AE864A",
"+ c #AF864A",
"@ c #AF874A",
"# c #AF864B",
"$ c #AF864C",
"% c #B0864A",
"& c #BA8E50",
"* c #BA8F50",
"= c #BC9051",
"- c #C99956",
"; c #C99A56",
": c #EBB364",
"> c #EBB464",
", c #ECB565",
"< c #EEB666",
"1 c #EFB766",
"2 c #F7BD69",
"3 c #F7BD6A",
"4 c #FFC36D",
/* pixels */
"                ",
"        XX%     ",
"     XXXX4XXX%  ",
"     X4<=4*<4X  ",
"     %X;242;XX  ",
"     XX;242;X%  ",
"     X4<=4*<4X  ",
"     %XXX4XXXX  ",
"        %XX     ",
"                ",
"                ",
"   XX           ",
"  X<<X          ",
"  X<<X          ",
"   XX           ",
"                "
};
