/* XPM */
static char *refactor[] = {
/* columns rows colors chars-per-pixel */
"16 16 39 1 ",
"  c None",
". c #49789C",
"X c #4A7A9E",
"o c #4B7B9F",
"O c #4B7CA0",
"+ c #4C7CA1",
"@ c #4D81A8",
"# c #558CB6",
"$ c #568DB7",
"% c #64A5D6",
"& c #67A8DA",
"* c #67A9DB",
"= c #67AADC",
"- c #6CB2E6",
"; c #6DB3E8",
": c gray53",
"> c #86888A",
", c #888888",
"< c #898989",
"1 c gray54",
"2 c #8B8B8B",
"3 c gray55",
"4 c #8D8D8D",
"5 c #8E8E8E",
"6 c #8D8E91",
"7 c gray57",
"8 c #A0A0A0",
"9 c gray72",
"0 c #BCBCBC",
"q c gray75",
"w c gray76",
"e c gray82",
"r c gray83",
"t c gainsboro",
"y c #DFDFDF",
"u c #E4E4E4",
"i c #E6E6E6",
"p c gray92",
"a c gray93",
/* pixels */
"  3:3 3:::3     ",
"  :uw9wuaa93    ",
"  :aaraaaaay7   ",
"  :u99raa33383  ",
"  3:3:3ya:  33  ",
"      6ra:      ",
"      >:::      ",
"      +;;+      ",
"     @$;;$@     ",
"     .====.     ",
"     .-==-.     ",
"     .;==;.     ",
"     .;==;.     ",
"     .%==%.     ",
"      ....      ",
"                "
};
