/* XPM */
static char *reference[] = {
/* columns rows colors chars-per-pixel */
"16 16 51 1 ",
"  c None",
". c #655F4C",
"X c #67614E",
"o c #736E5F",
"O c #565C6E",
"+ c #776464",
"@ c #776565",
"# c #61677B",
"$ c #676B79",
"% c #7F7171",
"& c #836E6E",
"* c #846E6E",
"= c #857D64",
"- c #888479",
"; c #A99F7F",
": c #727991",
"> c #928787",
", c #9C8383",
"< c #A29A96",
"1 c #BE9F9F",
"2 c #B2A98C",
"3 c #A3A19E",
"4 c #A9A69E",
"5 c #AAA69F",
"6 c #A9A89F",
"7 c #9099B8",
"8 c #9FA1A4",
"9 c #A5A2A2",
"0 c #A8A7A2",
"q c #A2A5AB",
"w c #A3A5AD",
"e c #A4A6AE",
"r c gray67",
"t c #AFA8A8",
"y c #B0A7A1",
"u c #B0A8A8",
"i c #BEB9AB",
"p c #C6A6A6",
"a c #CCAFAF",
"s c #C0BEB7",
"d c #C4BFBF",
"f c #CBBDBD",
"g c #CDC9B9",
"h c #D4CFBF",
"j c #B3B6C5",
"k c gray81",
"l c #DCCCCC",
"z c #C2C6D5",
"x c #C8CCDC",
"c c gray87",
"v c #E3D3D3",
/* pixels */
"                ",
" *+++++++++++>  ",
"**1ppppppppadu  ",
"+,,,,,,,,,,fkr  ",
"+ppppppppppvc9  ",
"+pppppppppplr<X-",
"+++++++++++%y2s4",
"  .==========ik4",
"  .;;;;;;;;;;hc3",
"  .;;;;;;;;;;gr6",
" #...........o0 ",
" O::::::::::jke ",
" O7777777777xc8 ",
" O7777777777zre ",
" OOOOOOOOOOO$e  ",
"                "
};
