/* XPM */
static char *struct[] = {
/* columns rows colors chars-per-pixel */
"16 16 67 1 ",
"  c None",
". c #AB4B42",
"X c #AF4D44",
"o c #AF4D45",
"O c #B14E45",
"+ c #B14F46",
"@ c #B24F46",
"# c #B44F46",
"$ c #B75047",
"% c #B75148",
"& c #B0634F",
"* c #B06867",
"= c #AB7671",
"- c #AC7772",
"; c #AE7973",
": c #AC7874",
"> c #AF7874",
", c #A67D7C",
"< c #B17976",
"1 c #B77F7A",
"2 c #C6574D",
"3 c #D15C51",
"4 c #D65E53",
"5 c #F36B5E",
"6 c #F46B5F",
"7 c #F96D61",
"8 c #FA6E61",
"9 c #FF7063",
"0 c #A4864E",
"q c #A5864F",
"w c #A5874F",
"e c #A7864F",
"r c #A38650",
"t c #A58752",
"y c #A18755",
"u c #A88850",
"i c #A0885A",
"p c #A58C5B",
"a c #B89658",
"s c #BB985A",
"d c #BE9A5B",
"f c #A48D61",
"g c #A7946D",
"h c #B78079",
"j c #CAA461",
"k c #D2AB65",
"l c #F0C373",
"z c #70899D",
"x c #768C9E",
"c c #7F919D",
"v c #728CA0",
"b c #8D8787",
"n c #AE8180",
"m c #B09EA7",
"M c #B19FA8",
"N c #C38781",
"B c #C48782",
"V c #EDA49D",
"C c #EEA49E",
"Z c #FBADA6",
"A c #FFB0A9",
"S c #9FC3DF",
"D c #A9C2CF",
"F c #A8C5D5",
"G c #A8C5D7",
"H c #A0C0DA",
"J c #A7CDEA",
/* pixels */
"    u      $    ",
"   qsq     .    ",
"  qjlkq   .3.   ",
" qjlllkq %292%  ",
"ualllllsq.696.  ",
" rjlllkr&39993+ ",
"zcpjlkrb+89998+ ",
"zJGfspD*.......+",
"zJJGgDJmBAAAAAB1",
"zJJJJJJnCAAAAAC:",
"zJJJJJJ:ZAAAAAZ-",
"zJJJJJJnCAAAAAC:",
"zJJJJJJMBAAAAABh",
"zSSSSSSH,BCZCB< ",
"vvvvvvvvz1:-:h  ",
"                "
};
