/* XPM */
static char *type_parameter[] = {
/* columns rows colors chars-per-pixel */
"16 16 29 1 ",
"  c None",
". c #AB8249",
"X c #AC8449",
"o c #AC844A",
"O c #AF864B",
"+ c #AF874B",
"@ c #B0864A",
"# c #B0864B",
"$ c #B0874B",
"% c #B0874C",
"& c #B1874C",
"* c #B1884C",
"= c #B2884C",
"- c #B48A4D",
"; c #E3AD61",
": c #E5AF62",
"> c #E5B062",
", c #ECB565",
"< c #EDB565",
"1 c #EEB565",
"2 c #EDB665",
"3 c #EEB666",
"4 c #EFB766",
"5 c #F0B866",
"6 c #F0B867",
"7 c #F1B867",
"8 c #F1B967",
"9 c #F2B967",
"0 c #FDC16C",
/* pixels */
"                ",
"                ",
"     o    o     ",
"    &:=  =:&    ",
"   &83&  &38=   ",
"  =83&    &38=  ",
" =83o      o38= ",
"o:0=o      o=0:o",
" &33&      &33& ",
"  o33&    &38&  ",
"   &83&  &38&   ",
"    &>=  =>&    ",
"     o    o     ",
"                ",
"                ",
"                "
};
