/* XPM */
static char *class[] = {
/* columns rows colors chars-per-pixel */
"32 32 61 1 ",
"  c None",
". c #AB7671",
"X c #AC7771",
"o c #AC7772",
"O c #AE7A70",
"+ c #AF7A71",
"@ c #AD7872",
"# c #AD7873",
"$ c #AC7973",
"% c #AF7973",
"& c #A97875",
"* c #AA7975",
"= c #B07B73",
"- c #B47F73",
"; c #B07975",
": c #B17A76",
"> c #B17B76",
", c #B27B76",
"< c #B57D77",
"1 c #B47D78",
"2 c #B57D78",
"3 c #A1834D",
"4 c #A2844E",
"5 c #AB8C51",
"6 c #AB8C52",
"7 c #AC8C53",
"8 c #AF8E53",
"9 c #AD8C54",
"0 c #928B75",
"q c #BC8775",
"w c #BE8C72",
"e c #BC8874",
"r c #C79276",
"t c #D4AC65",
"y c #D6AE66",
"u c #DEAD76",
"i c #E1B076",
"p c #E6B675",
"a c #F0C373",
"s c #70899D",
"d c #7F8898",
"f c #878793",
"g c #AF8281",
"h c #AF8A8C",
"j c #B0969C",
"k c #A8A796",
"l c #AAA998",
"z c #C58883",
"x c #C68983",
"c c #C78984",
"v c #D5938D",
"b c #D6948E",
"n c #EFA59E",
"m c #F0A69F",
"M c #FAADA6",
"N c #FBADA6",
"B c #FEAFA8",
"V c #FFB0A9",
"C c #AEB4C6",
"Z c #AAC0D7",
"A c #A7CDEA",
/* pixels */
"              66                ",
"             6336               ",
"            633336              ",
"           633yy336             ",
"          633yaay336            ",
"         633yaaaay336           ",
"        633yaaaaaay336          ",
"       633yaaaaaaaay336         ",
"      633yaaaaaaaaaay336        ",
"     633yaaaaaaaaaaaay336       ",
"    633yaaaaaaaaaaaaaay336      ",
"    633yaaaaaaaaaaaaaay336      ",
"sssss033yaaaaaaaaaaur,..$2      ",
"ssssss033yaaaaaaapq........,    ",
"ssAAAAAl33yaaaaap,.,bnNNnb,.$   ",
"ssAAAAAAl33yaaap,.cNVVVVVVNc.$  ",
"ssAAAAAAAl33yaaw.cVVVVVVVVVBc., ",
"ssAAAAAAAAl33yu.,NVVVVVVVVVVN,. ",
"ssAAAAAAAAAl33w.bVVVVVVVVVVVVb.,",
"ssAAAAAAAAAAk3$.mVVVVVVVVVVVVn.$",
"ssAAAAAAAAAAAl..NVVVVVVVVVVVVN..",
"ssAAAAAAAAAAAA$.NVVVVVVVVVVVVN.$",
"ssAAAAAAAAAAAAg.nVVVVVVVVVVVVn.,",
"ssAAAAAAAAAAAAj.bVVVVVVVVVVVVb.2",
"ssAAAAAAAAAAAAC.,NVVVVVVVVVVN,. ",
"ssAAAAAAAAAAAAAh.cBVVVVVVVVBc., ",
"ssAAAAAAAAAAAAAZ$.cNVVVVVVNc.$  ",
"ssAAAAAAAAAAAAAAf$.,bnNNnb,.$   ",
"sssssssssssssssssd,........,    ",
"ssssssssssssssssss  ,,..,,      ",
"                                ",
"                                "
};
