/* XPM */
static char *dummy[]={
"32 32 28 1",
". c None",
"# c None",
"e c #595959",
"j c #6c7e80",
"o c #807e79",
"r c #808077",
"i c #808080",
"n c #999791",
"b c #999990",
"g c #999999",
"v c #9ba9c4",
"q c #9fb1b3",
"a c #a6a677",
"f c #b3b3a8",
"l c #b3b3b3",
"x c #b4cef0",
"c c #c3bba6",
"z c #cad9d9",
"d c #cae8ac",
"p c #ccccc2",
"k c #cccccc",
"s c #d1977d",
"y c #d6d6d6",
"m c #dae6e6",
"w c #e0e0e0",
"t c #e6bea1",
"u c #e9c0b4",
"h c #ebebeb",
"................................",
"................................",
"................................",
"................................",
"###########aabbaa##############.",
"#########aacddddcaa############.",
"########aaddddddddaa###########.",
"#######aadddddddddeeeee########.",
"#######adddddddddfghhhi########.",
"######acdddddddddjkhhhlj#######.",
"######adddddddddcjhhhhme#######.",
"#####nooonfpddpqjlhkhhhi#######.",
"###nrstuutsrfqgvjwmjwhhlj######.",
"##rsuuuuuuuugvxvghlelhhmj######.",
"#rsuuuuuuuugvxxjkhiiihhhg######.",
"#ruuuuuuuuugxxqjhyjxjwhhkj#####.",
"nsuuuuuuuugqxxilhqgxglhhhj#####.",
"otuuuuuuuugxxxjmmjgviihhhgj####.",
"ouuuuuuuuugxxvghwqqqqqmhhkj####.",
"ouuuuuuuuugxxjzhhhhhhhhhhhj####.",
"otuuuuuuuugxvihwggggggqhhhlj###.",
"nsuuuuuuuugvjkhqivvvvvjzhhwe###.",
"#ruuuuuuuuuijhhjqxxxxxgqhhhg###.",
"#rsuuuuuuuujlhzjxxxxxxljhhhkj##.",
"##rsuuuutsnjmhljxxxxxxgemhhhj##.",
"###nrstunjgzhhwgjgxxvjjghhhhkij.",
"#####noooqhhhhhhqjgggjwhhhhhhhg.",
"########eeeeeeeeee###eeeeeeeeee.",
"................................",
"................................",
"................................",
"................................"};
