/* XPM */
static char *constructor[] = {
/* columns rows colors chars-per-pixel */
"32 32 12 1 ",
"  c None",
". c #A1834D",
"X c #A2844E",
"o c #AA8951",
"O c #AB8C51",
"+ c #AB8C52",
"@ c #AC8C53",
"# c #AF8E53",
"$ c #AD8C54",
"% c #D4AC65",
"& c #D6AE66",
"* c #F0C373",
/* pixels */
"                                ",
"                                ",
"                                ",
"                                ",
"                                ",
"                                ",
"                                ",
"                                ",
"                    ++          ",
"                   +..+         ",
"                  +....+        ",
"                 +..%%..+       ",
"                +..%**%..+      ",
"               +..%****%..+     ",
"              +..%******%..+    ",
"             +..%********%..+   ",
"            +..%**********%..+  ",
"           +..%************%..+ ",
"          +..%**************%..+",
"          +..%**************%..+",
"           +..%************%..+ ",
"            +..%**********%..+  ",
"             +..%********%..+   ",
"              +..%******%..+    ",
"               +..%****%..+     ",
"                +..%**%..+      ",
"                 +..%%..+       ",
"                  +....+        ",
"                   +..+         ",
"                    ++          ",
"                                ",
"                                "
};
