/* XPM */
static char *constant[] = {
/* columns rows colors chars-per-pixel */
"32 32 38 1 ",
"  c None",
". c #AB4B42",
"X c #AC4B42",
"o c #AC4B43",
"O c #AC4C43",
"+ c #AD4C43",
"@ c #AE4D43",
"# c #AE4D44",
"$ c #AF4D44",
"% c #AF4D45",
"& c #B04D44",
"* c #B14D45",
"= c #B14E45",
"- c #B24E45",
"; c #B44F46",
": c #B54F46",
"> c #B64F46",
", c #B74F46",
"< c #B94F46",
"1 c #B35046",
"2 c #B65046",
"3 c #B85047",
"4 c #BA5248",
"5 c #BB5249",
"6 c #C0544B",
"7 c #C2554B",
"8 c #C9584E",
"9 c #D15C51",
"0 c #D85F54",
"q c #E06257",
"w c #E8665A",
"e c #EE695C",
"r c #F0695D",
"t c #F46B5F",
"y c #F96D61",
"u c #FC6F62",
"i c #FE7063",
"p c #FF7063",
/* pixels */
"                                ",
"                                ",
"                                ",
"                                ",
"                                ",
"                ##              ",
"                ##              ",
"               ####             ",
"              <#44#3            ",
"              ##ww##            ",
"             >#6ii6#1           ",
"             ##eiit##           ",
"            1#8iiii8#>          ",
"            ##tiiiit##          ",
"           >#9iiiiii9#>         ",
"           #>yiiiiiiy>#         ",
"          ##0iiiiiiii0##        ",
"          #>yiiiiiiiiy>#        ",
"         ##qiiiiiiiiiiq##       ",
"        >#4iiiiiiiiiiii4#3      ",
"        ##wiyyiiiiiiiiiw##      ",
"       >#6iiiyiiiiiiiiii6#1     ",
"       ##eiiiiiiiiiiiiiit##     ",
"      1#8iiiiiiiiiiiiiiii8#>    ",
"      ######################    ",
"     >######################>   ",
"                                ",
"                                ",
"                                ",
"                                ",
"                                ",
"                                "
};
