/* XPM */
static char *event[] = {
/* columns rows colors chars-per-pixel */
"32 32 3 1 ",
"  c None",
". c #AB8349",
"X c #FFC36D",
/* pixels */
"                                ",
"                                ",
"                                ",
"                                ",
"                                ",
"                                ",
"                                ",
"                                ",
"    ..........................  ",
"    ..........................  ",
"    ..XXXXXXXXXXXXXXXXXXXXXX..  ",
"    ..XXXXXXXXXXXXXXXXXXXXXX..  ",
"    ..XXXXXXXXXXXXXXXXXXXXXX..  ",
"    ..XXXXXXXXXXXXXXXXXXXXXX..  ",
"    ..XXXXXXXXXXXXXXXXXXXXXX..  ",
"    ..XXXXXXXXXXXXXXXXXXXXXX..  ",
"    ..XXXXXXXXXXXXXXXXXXXXXX..  ",
"    ..XXXXXXXXXXXXXXXXXXXXXX..  ",
"    ..XXXXXXXXXXXXXXXXXXXXXX..  ",
"    ..XXXXXXXXXXXXXXXXXXXXXX..  ",
"    ..........................  ",
"    ..........................  ",
"                                ",
"                                ",
"                                ",
"                                ",
"                                ",
"                                ",
"                                ",
"                                ",
"                                ",
"                                "
};
