/* XPM */
static char *field[] = {
/* columns rows colors chars-per-pixel */
"32 32 3 1 ",
"  c None",
". c #70899D",
"X c #A7CDEA",
/* pixels */
"                                ",
"                                ",
"                                ",
"                                ",
"                                ",
"                                ",
"                                ",
"                                ",
"          ......................",
"          ......................",
"          ..XXXXXXXXXXXXXXXXXX..",
"          ..XXXXXXXXXXXXXXXXXX..",
"          ..XXXXXXXXXXXXXXXXXX..",
"          ..XXXXXXXXXXXXXXXXXX..",
"          ..XXXXXXXXXXXXXXXXXX..",
"          ..XXXXXXXXXXXXXXXXXX..",
"          ..XXXXXXXXXXXXXXXXXX..",
"          ..XXXXXXXXXXXXXXXXXX..",
"          ..XXXXXXXXXXXXXXXXXX..",
"          ..XXXXXXXXXXXXXXXXXX..",
"          ..XXXXXXXXXXXXXXXXXX..",
"          ..XXXXXXXXXXXXXXXXXX..",
"          ..XXXXXXXXXXXXXXXXXX..",
"          ..XXXXXXXXXXXXXXXXXX..",
"          ..XXXXXXXXXXXXXXXXXX..",
"          ..XXXXXXXXXXXXXXXXXX..",
"          ..XXXXXXXXXXXXXXXXXX..",
"          ..XXXXXXXXXXXXXXXXXX..",
"          ......................",
"          ......................",
"                                ",
"                                "
};
