/* XPM */
static char *file[] = {
/* columns rows colors chars-per-pixel */
"32 32 6 1 ",
"  c None",
". c #6D6D6D",
"X c #8D8D8D",
"o c #A9A9A9",
"O c gray67",
"+ c #ECECEC",
/* pixels */
"  ...................           ",
"  ....................          ",
"  ..++++++++++++++XXO..         ",
"  ..++++++++++++++XX+O..        ",
"  ..++++++++++++++XX++O..       ",
"  ..++++++++++++++XX+++O..      ",
"  ..++++++++++++++XX++++O..     ",
"  ..++++++++++++++XX+++++O..    ",
"  ..++++++++++++++XXXXXXXX..    ",
"  ..++++++++++++++XXXXXXXX..    ",
"  ..++++++++++++++++++++++..    ",
"  ..++++++++++++++++++++++..    ",
"  ..++++++++++++++++++++++..    ",
"  ..++++++++++++++++++++++..    ",
"  ..++++++++++++++++++++++..    ",
"  ..++++++++++++++++++++++..    ",
"  ..++++++++++++++++++++++..    ",
"  ..++++++++++++++++++++++..    ",
"  ..++++++++++++++++++++++..    ",
"  ..++++++++++++++++++++++..    ",
"  ..++++++++++++++++++++++..    ",
"  ..++++++++++++++++++++++..    ",
"  ..++++++++++++++++++++++..    ",
"  ..++++++++++++++++++++++..    ",
"  ..++++++++++++++++++++++..    ",
"  ..++++++++++++++++++++++..    ",
"  ..++++++++++++++++++++++..    ",
"  ..++++++++++++++++++++++..    ",
"  ..........................    ",
"  ..........................    ",
"                                ",
"                                "
};
