/* XPM */
static char *fix[] = {
/* columns rows colors chars-per-pixel */
"32 32 97 2 ",
"   c None",
".  c #887229",
"X  c #897229",
"o  c #887329",
"O  c #897329",
"+  c #8A7229",
"@  c #8A7329",
"#  c #88732A",
"$  c #89732A",
"%  c #8A732A",
"&  c #897428",
"*  c #897429",
"=  c #89742A",
"-  c #8A742A",
";  c #8D772C",
":  c #937F30",
">  c #9E8C38",
",  c #9F8D38",
"<  c #A08E39",
"1  c #A18F3A",
"2  c #A2903A",
"3  c #B2A346",
"4  c #B3A546",
"5  c #B3A447",
"6  c #B4A647",
"7  c #B4A748",
"8  c #C7BD54",
"9  c #C8BE55",
"0  c #CDC459",
"q  c #CFC65A",
"w  c #D0C85B",
"e  c #D1C85B",
"r  c #D3CA5C",
"t  c #D3CB5D",
"y  c #D6CE5F",
"u  c #D7D060",
"i  c #D8D061",
"p  c #DAD362",
"a  c #DAD463",
"s  c #DFD965",
"d  c #E0DA66",
"f  c #E4DF68",
"g  c #E1DC7C",
"h  c #E1DC7D",
"j  c #ECE86F",
"k  c #EDEA6F",
"l  c #EDEA70",
"z  c #EEEA70",
"x  c #EFEC71",
"c  c #F0ED71",
"v  c #F1EE72",
"b  c #F2F072",
"n  c #F3F073",
"m  c #F3F174",
"M  c #F5F275",
"N  c #F5F375",
"B  c #F6F475",
"V  c #F6F576",
"C  c #F8F777",
"Z  c #FAF978",
"A  c #FBFA79",
"S  c #FBFB79",
"D  c #FCFB7A",
"F  c #FCFC7A",
"G  c #FDFC7B",
"H  c #FEFD7B",
"J  c #FEFE7B",
"K  c #FFFF7C",
"L  c #8D8D8D",
"P  c #8E8E8E",
"I  c #BBBBBB",
"U  c #E6E18C",
"Y  c #E7E28D",
"T  c #FFFF84",
"R  c #FFFF85",
"E  c #FFFF9A",
"W  c #FFFFA7",
"Q  c #FFFFA8",
"!  c #FFFFAB",
"~  c #FFFFAC",
"^  c #FFFFBA",
"/  c #D2D2D2",
"(  c LightGray",
")  c #EFECC1",
"_  c #F0EEC4",
"`  c #ECE8DB",
"'  c #EDEADB",
"]  c #FFFFDA",
"[  c #FFFFDB",
"{  c #E9E9E9",
"}  c #FBFBEF",
"|  c #FBFBF0",
" . c #FFFFF7",
".. c #FFFFF8",
"X. c #FFFFF9",
"o. c #FFFFFD",
"O. c white",
/* pixels */
"                            % % % % % %                         ",
"                      % % % % % % % % % % % %                   ",
"                    % % % 5 i v K K v u 5 % % %                 ",
"                  % % 5 m K K K K K K K K v 5 % %               ",
"                % % q K K K K K K K K K K K K q % %             ",
"              % % 9 K K K K E [ o.o.[ E K K K K 8 % %           ",
"              % 1 K K K K Q o.o.o.o.o.o.W K K K K 1 %           ",
"            % % e K K K R  .o.o.o.o.o.o. .R K K K e % %         ",
"            % % x K K K Q o.o.o.o.o.o.o.o.Q K K K x % %         ",
"            % % K K K K ^ o.o.o.o.o.o.o.o.^ K K K K % %         ",
"            % % m K K K Q o.o.o.o.o.o.o.o.Q K K K m % %         ",
"            % % e K K K R  .o.o.o.o.o.o. .R K K K e % %         ",
"              % > K K K K Y ` o.o.o.o.` Y K K K K > %           ",
"              % % e K K K K h ) o.o._ h K K K K e % %           ",
"                % : m K K K K d m m d K K K K m : %             ",
"                % % 5 K K K K C s s C K K K K 7 % %             ",
"                  % % f K K K K x j K K K K f % %               ",
"                  % % 1 K K K K x j K K K K 2 % %               ",
"                    % % e K K K x j K K K e % %                 ",
"                      % 1 K K K x j K K K > %                   ",
"                      % % m K K x j K K m % %                   ",
"                      % % i K K x j K K i % %                   ",
"                        % % % % % % % % % %                     ",
"                        P P { { { { { { P P                     ",
"                        P P I I I I I I P P                     ",
"                        P P { { { { { { P P                     ",
"                        P P I I I I I I P P                     ",
"                        P P ( { { { { ( P P                     ",
"                        P P P P P P P P P P                     ",
"                          P P P P P P P P                       ",
"                                                                ",
"                                                                "
};
