/* XPM */
static char *folder[] = {
/* columns rows colors chars-per-pixel */
"32 32 10 1 ",
"  c None",
". c #A89453",
"X c #AA9655",
"o c #AC9755",
"O c #B29B57",
"+ c #B6A05A",
"@ c #C8AF63",
"# c #EDD075",
"$ c #F7D97A",
"% c #FBDC7C",
/* pixels */
"                                ",
"                                ",
"                                ",
"                                ",
"............                    ",
".............                   ",
"..%%%%%%%%%@..                  ",
"..%%%%%%%%%$+.O                 ",
"..%%%%%%%%%%#.................  ",
"..............................  ",
"..%%%%%%%%%%%%%%%%%%%%%%%%%%..  ",
"..%%%%%%%%%%%%%%%%%%%%%%%%%%..  ",
"..%%%%%%%%%%%%%%%%%%%%%%%%%%..  ",
"..%%%%%%%%%%%%%%%%%%%%%%%%%%..  ",
"..%%%%%%%%%%%%%%%%%%%%%%%%%%..  ",
"..%%%%%%%%%%%%%%%%%%%%%%%%%%..  ",
"..%%%%%%%%%%%%%%%%%%%%%%%%%%..  ",
"..%%%%%%%%%%%%%%%%%%%%%%%%%%..  ",
"..%%%%%%%%%%%%%%%%%%%%%%%%%%..  ",
"..%%%%%%%%%%%%%%%%%%%%%%%%%%..  ",
"..%%%%%%%%%%%%%%%%%%%%%%%%%%..  ",
"..%%%%%%%%%%%%%%%%%%%%%%%%%%..  ",
"..%%%%%%%%%%%%%%%%%%%%%%%%%%..  ",
"..%%%%%%%%%%%%%%%%%%%%%%%%%%..  ",
"..%%%%%%%%%%%%%%%%%%%%%%%%%%..  ",
"..%%%%%%%%%%%%%%%%%%%%%%%%%%..  ",
"..............................  ",
"..............................  ",
"                                ",
"                                ",
"                                ",
"                                "
};
