/* XPM */
static char *interface[] = {
/* columns rows colors chars-per-pixel */
"32 32 18 1 ",
"  c None",
". c #808080",
"X c gray51",
"o c gray52",
"O c #868686",
"+ c #9D9D9D",
"@ c gray62",
"# c #B4B4B4",
"$ c gray71",
"% c #B6B6B6",
"& c #CBCBCB",
"* c gray80",
"= c gray86",
"- c gainsboro",
"; c #DFDFDF",
": c gray88",
"> c #E1E1E1",
", c gray90",
/* pixels */
"                                ",
"                                ",
"                                ",
"                                ",
"                                ",
"                                ",
"                                ",
"                                ",
"                      ......    ",
"                     ........   ",
"   ....             ..@*,,*@..  ",
" ........          ..%,,,,,,%.. ",
" ..%==%.............@,,,,,,,,@..",
"..%,,,,%............*,,,,,,,,*..",
"..=,,,,=..,,,,,,,,..,,,,,,,,,,..",
"..=,,,,=..,,,,,,,,..,,,,,,,,,=..",
"..%,,,,%............*,,,,,,,,*..",
" ..%==%.............@,,,,,,,,@..",
" ........          ..%,,,,,,%.. ",
"   ....             ..@*,,*@..  ",
"                     ........   ",
"                      ......    ",
"                                ",
"                                ",
"                                ",
"                                ",
"                                ",
"                                ",
"                                ",
"                                ",
"                                ",
"                                "
};
