/* XPM */
static char *keyword[] = {
/* columns rows colors chars-per-pixel */
"32 32 9 1 ",
"  c None",
". c #AB8349",
"X c #FFC36D",
"o c #848484",
"O c #8D8D8D",
"+ c gray62",
"@ c gray71",
"# c #B7B7B7",
"$ c #ECECEC",
/* pixels */
"  ooooooooooooooooooo           ",
"  oooooooooooooooooooo          ",
"  oo$$$$$$$$$$$$$$OO#oo         ",
"  oo$$$$$$$$$$$$$$OO$#oo        ",
"  oo$$$$$$$$$$$$$$OO$$#oo       ",
"  oo$$$$$$$$$$$$$$OO$$$#oo      ",
"  oo$$++++++++$$$$OO$$$$#oo     ",
"  oo$$++++++++$$$$OO$$$$$#oo    ",
"  oo$$$$$$$$$$$$$$OOOOOOOOoo    ",
"  oo$$$$$$$$$$$$$$OOOOOOOOoo    ",
"  oo$$............$$$$$$$$oo    ",
"  oo$$............$$$$$$$$oo    ",
"  oo$$..XXXXXXXX..++++++$$oo    ",
"  oo$$..XXXXXXXX..++++++$$oo    ",
"  oo$$............$$$$$$$$oo    ",
"  oo$$............$$$$$$$$oo    ",
"  oo$$$$$$$$$$$$$$$$$$$$$$oo    ",
"  oo$$$$$$$$$$$$$$$$$$$$$$oo    ",
"  oo$$++++++++++++++++++$$oo    ",
"  oo$$++++++++++++++++++$$oo    ",
"  oo$$$$$$$$$$$$$$$$$$$$$$oo    ",
"  oo$$$$$$$$$$$$$$$$$$$$$$oo    ",
"  oo$$$$$$$$............$$oo    ",
"  oo$$$$$$$$............$$oo    ",
"  oo$$++++++..XXXXXXXX..$$oo    ",
"  oo$$++++++..XXXXXXXX..$$oo    ",
"  oo$$$$$$$$............$$oo    ",
"  oo$$$$$$$$............$$oo    ",
"  oooooooooooooooooooooooooo    ",
"  oooooooooooooooooooooooooo    ",
"                                ",
"                                "
};
