/* XPM */
static char *method[] = {
/* columns rows colors chars-per-pixel */
"32 32 43 1 ",
"  c None",
". c #AB7671",
"X c #AC7772",
"o c #AC7773",
"O c #AD7872",
"+ c #AE7873",
"@ c #AF7973",
"# c #AE7874",
"$ c #AF7874",
"% c #AE7974",
"& c #AF7974",
"* c #AF7875",
"= c #B07974",
"- c #B07975",
"; c #B17A75",
": c #B07976",
"> c #B37A76",
", c #B27A77",
"< c #B27B77",
"1 c #B37B77",
"2 c #B37C76",
"3 c #B67E79",
"4 c #B77E79",
"5 c #B77F79",
"6 c #B67E7A",
"7 c #B77E7A",
"8 c #B87F79",
"9 c #B87F7A",
"0 c #BF847F",
"q c #C18580",
"w c #C28681",
"e c #DD9992",
"r c #DE9993",
"t c #E9A19A",
"y c #EAA29B",
"u c #EBA29C",
"i c #F1A6A0",
"p c #F2A7A0",
"a c #F8ABA4",
"s c #F9ACA5",
"d c #FAADA6",
"f c #FBADA6",
"g c #FFB0A9",
/* pixels */
"                                ",
"                                ",
"                                ",
"                                ",
"                                ",
"                                ",
"                                ",
"                                ",
"                  =$..$=        ",
"               6$........$9     ",
"              $..wrpssprw..=    ",
"             $.9uggggggggu6.$   ",
"            $.0sggggggggggs0.=  ",
"           6.9sggggggggggggs6.6 ",
"           $.uggggggggggggggu.$ ",
"           .wggggggggggggggggw. ",
"          =.rggggggggggggggggr.=",
"          =.pggggggggggggggggp.$",
"          ..sggggggggggggggggs..",
"          ..sggggggggggggggggs.$",
"          =.pggggggggggggggggp.$",
"          =.rggggggggggggggggr.=",
"           .wggggggggggggggggw. ",
"           $.uggggggggggggggu.. ",
"           9.6sggggggggggggs6.6 ",
"            =.0sggggggggggs0.=  ",
"             $.6uggggggggu6.$   ",
"              =..wrpssprw..=    ",
"               6$.........6     ",
"                  =$..$=        ",
"                                ",
"                                "
};
