/* XPM */
static char *module[] = {
/* columns rows colors chars-per-pixel */
"32 32 40 1 ",
"  c None",
". c #5B6192",
"X c #5B6292",
"o c #5C6091",
"O c #5C6191",
"+ c #5C6192",
"@ c #5D6192",
"# c #5C6193",
"$ c #5C6292",
"% c #5D6292",
"& c #5D6293",
"* c #5F6494",
"= c #606494",
"- c #636896",
"; c #636897",
": c #787BA4",
"> c #787CA5",
", c #787DA5",
"< c #7C7FA7",
"1 c #7C80A7",
"2 c #7D81A8",
"3 c #7E82A8",
"4 c #7E82A9",
"5 c #8386AB",
"6 c #8286AC",
"7 c #868AAE",
"8 c #878BAE",
"9 c #878AAF",
"0 c #888BAF",
"q c #8A8DB0",
"w c #8A8EB1",
"e c #8B8EB1",
"r c #8C8FB1",
"t c #8D8FB2",
"y c #8C90B2",
"u c #9195B5",
"i c #9295B6",
"p c #9497B7",
"a c #9498B7",
"s c #979AB9",
/* pixels */
"                                ",
"                                ",
"                                ",
"                                ",
"      ++++++++    ++++++++      ",
"      ++++++++    ++++++++      ",
"      ++sss7++    ++7sss++      ",
"      ++sss1++    ++1sss++      ",
"      ++sss2++    ++2sss++      ",
"      ++sssr++++++++rsss++      ",
"      ++ssss2++++++2ssss++      ",
"  +++++=sssssu5115usssss=+++++  ",
" ++++++,ssssssssssssssss,++++++ ",
"++-7urrssssssssssssssssssrru0-+ ",
"++7ssssssssssssssssssssssssss7++",
"++assssssssssssssssssssssssssu++",
"++0ssssssssssssssssssssssssss7++",
"++-7urrssssssssssssssssssrru7-+ ",
" ++++++,ssssssssssssssss,++++++ ",
"   ++++=ssssssssssssssss+++++   ",
"      ++sssssu5,,5usssss++      ",
"      ++ssss2++++++2ssss++      ",
"      ++sssr++++++++ysss++      ",
"      ++sss2++    ++2sss++      ",
"      ++sss1++    ++1sss++      ",
"      ++sss7++    ++7sss++      ",
"      ++++++++    ++++++++      ",
"      ++++++++    ++++++++      ",
"                                ",
"                                ",
"                                ",
"                                "
};
