/* XPM */
static char *operator[] = {
/* columns rows colors chars-per-pixel */
"32 32 34 1 ",
"  c None",
". c #AB8348",
"X c #AA8249",
"o c #AA8349",
"O c #AB8349",
"+ c #AB834A",
"@ c #AC8349",
"# c #AB844A",
"$ c #AC8449",
"% c #AD844A",
"& c #AD854A",
"* c #B48A4D",
"= c #B58A4D",
"- c #B58B4D",
"; c #B68B4E",
": c #C09352",
"> c #C19352",
", c #C39553",
"< c #C39654",
"1 c #D1A059",
"2 c #D2A15A",
"3 c #E0AB60",
"4 c #E2AD60",
"5 c #E3AE61",
"6 c #E6B062",
"7 c #F1B867",
"8 c #F1B967",
"9 c #F3BA68",
"0 c #F5BC69",
"q c #F6BC69",
"w c #FBC06B",
"e c #FBC16B",
"r c #FCC06C",
"t c #FFC36D",
/* pixels */
"                                ",
"                                ",
"                 OOOO           ",
"                OOOOOO          ",
"           OOOOOOOttOOOOOOO     ",
"          OOOOOOOOttOOOOOOOO    ",
"          OOtt9,OOttOO,8ttOO    ",
"          OOtttt6=tt=3ttttOO    ",
"          OOOO2tttttttt2OOOO    ",
"           OOOO=3tttt3=OOOO     ",
"           OOOO=3tttt3=OOOO     ",
"          OOOO2tttttttt2OOOO    ",
"          OOtttt6=tt=3ttttOO    ",
"          OOtt9,OOttOO,8ttOO    ",
"          OOOOOOOOttOOOOOOOO    ",
"           OOOOOOOttOOOOOOO     ",
"                OOOOOO          ",
"                 OOOO           ",
"                                ",
"                                ",
"                                ",
"                                ",
"      OOOO                      ",
"     OOOOOO                     ",
"    OO,99,OO                    ",
"    OO9tt9OO                    ",
"    OO9tt9OO                    ",
"    OO,99,OO                    ",
"     OOOOOO                     ",
"      OOOO                      ",
"                                ",
"                                "
};
