/* XPM */
static char *refactor[] = {
/* columns rows colors chars-per-pixel */
"32 32 59 1 ",
"  c None",
". c #49789C",
"X c #49799D",
"o c #4A799C",
"O c #4A799D",
"+ c #4A7A9D",
"@ c #4A7A9E",
"# c #4B7B9F",
"$ c #4B7CA0",
"% c #4C7DA3",
"& c #4C7EA3",
"* c #4D7FA5",
"= c #7E858B",
"- c #5083AA",
"; c #5084AB",
": c #5388B1",
"> c #5389B1",
", c #5A93BF",
"< c #5A94C0",
"1 c #5D99C6",
"2 c #5E9AC7",
"3 c #62A1D1",
"4 c #67AADC",
"5 c #68ABDD",
"6 c #69ACDF",
"7 c #69ADE0",
"8 c #6BB0E4",
"9 c #6CB1E5",
"0 c #6DB3E8",
"q c #858687",
"w c #868686",
"e c gray53",
"r c #888888",
"t c #898989",
"y c gray54",
"u c gray55",
"i c #8D8D8D",
"p c gray56",
"a c #939393",
"s c gray60",
"d c #9A9A9A",
"f c #9B9B9B",
"g c #A0A0A0",
"h c gray64",
"j c #B1B1B1",
"k c #B4B4B4",
"l c gray71",
"z c #BCBCBC",
"x c gray75",
"c c #C0C0C0",
"v c #C6C6C6",
"b c gray80",
"n c gray81",
"m c #D2D2D2",
"M c #DADADA",
"N c #E1E1E1",
"B c #E6E6E6",
"V c #EAEAEA",
"C c gray93",
/* pixels */
"     eeer    eeeeeeee           ",
"    eeeeeeeeeeeeeeeeeee         ",
"    eeCmgreergmCCCCNkree        ",
"    eeCCCCzCCCCCCCCCCMfee       ",
"    eeCCCCzCCCCCCCCCCCCkee      ",
"    eeCCCCzCCCCCCCCCCCCCcee     ",
"    eeCCCCzCCCCCCCareergckee    ",
"    eeCbfrerfbCCCCeeeeeeeree    ",
"    eeeeeeeeerNCCCee    reee    ",
"     eeee   eezCCCee      ee    ",
"             ekCCCee       r    ",
"             ekCCCee            ",
"            =eeeeeee            ",
"            eeeeeeee            ",
"            .$0000$.            ",
"            .;0000;.            ",
"           $.<0000,.$           ",
"           .$600006$.           ",
"          $.20300302.$          ",
"          ..60300304..          ",
"          ..90300309..          ",
"          ..00300300..          ",
"          ..00300300..          ",
"          ..00300300..          ",
"          ..00300300..          ",
"          ..00300300..          ",
"          ..70300306..          ",
"          $.>630036>.$          ",
"           ..........           ",
"            $......$            ",
"                                ",
"                                "
};
