/* XPM */
static char *reference[] = {
/* columns rows colors chars-per-pixel */
"32 32 58 1 ",
"  c None",
". c #655F4C",
"X c #67614E",
"o c #6B6554",
"O c #736E5F",
"+ c #565C6E",
"@ c #776464",
"# c #776565",
"$ c #786464",
"% c #786565",
"& c #7A6969",
"* c #61677B",
"= c #676B79",
"- c #7F7171",
"; c #846E6E",
": c #88857A",
"> c #A99F7F",
", c #8C8B86",
"< c #8E8C88",
"1 c #88898E",
"2 c #928787",
"3 c #918C8C",
"4 c #918D8D",
"5 c gray60",
"6 c #9B9B9B",
"7 c gray61",
"8 c #9D9D9D",
"9 c #9F9E9C",
"0 c #AA8F8F",
"q c #AB8F8F",
"w c #A29A96",
"e c #A09E9E",
"r c #A1A09C",
"t c #A6A59E",
"y c #A9A89F",
"u c #BCB49C",
"i c #9E9EA2",
"p c #9099B8",
"a c #A3A1A1",
"s c #A4A4A4",
"d c #AFA7A1",
"f c #A9A8A1",
"g c #ACABA1",
"h c #A3A5AD",
"j c #A4A6AE",
"k c #B0A7A1",
"l c #B6ACAC",
"z c #A6A9B1",
"x c gray71",
"c c #C6A6A6",
"v c #D3BABA",
"b c #CBC5B2",
"n c #C6C6C6",
"m c #DDCACA",
"M c #DDDDDD",
"N c #FDFDFC",
"B c #FEFDFD",
"V c white",
/* pixels */
"                                ",
"                                ",
"   ;@@@@@@@@@@@@@@@@@@@@@@@2    ",
"  ;@@@@@@@@@@@@@@@@@@@@@@&3l    ",
" ;@$0cccccccccccccccccccve6     ",
";@$0cccccccccccccccccccmV66     ",
"@@@@@@@@@@@@@@@@@@@@@@@VV66     ",
"@@cccccccccccccccccccccVVs6     ",
"@@cccccccccccccccccccccVVx6l    ",
"@@cccccccccccccccccccccVVn6s    ",
"@@cccccccccccccccccccccVM66w..X:",
"@@cccccccccccccccccccccM66w..o1f",
"@@@@@@@@@@@@@@@@@@@@@@@36d>>u66 ",
"@@@@@@@@@@@@@@@@@@@@@@@-k>>bV66 ",
"    .......................VV66 ",
"    ..>>>>>>>>>>>>>>>>>>>>>VVs6 ",
"    ..>>>>>>>>>>>>>>>>>>>>>VVx6f",
"    ..>>>>>>>>>>>>>>>>>>>>>VVn6t",
"    ..>>>>>>>>>>>>>>>>>>>>>VM66y",
"    ..>>>>>>>>>>>>>>>>>>>>>M66y ",
"   *.......................,6f  ",
"  *+.......................Ot   ",
"  +++++++++++++++++++++++VV66   ",
"  ++pppppppppppppppppppppVVs6   ",
"  ++pppppppppppppppppppppVVx6z  ",
"  ++pppppppppppppppppppppVVn6i  ",
"  ++pppppppppppppppppppppVM66j  ",
"  ++pppppppppppppppppppppM66j   ",
"  +++++++++++++++++++++++16j    ",
"  +++++++++++++++++++++++=j     ",
"                                ",
"                                "
};
