/* XPM */
static char *snippet[] = {
/* columns rows colors chars-per-pixel */
"32 32 2 1 ",
"  c None",
". c #727272",
/* pixels */
"                                ",
"                                ",
"                                ",
"                                ",
"                                ",
"                                ",
"                                ",
"                                ",
"                      ........  ",
"                      ........  ",
"                                ",
"                                ",
"                      ........  ",
"                      ........  ",
"                                ",
"                                ",
"                      ........  ",
"                      ........  ",
"                                ",
"                                ",
"  ............................  ",
"  ............................  ",
"                                ",
"                                ",
"  ............................  ",
"  ............................  ",
"                                ",
"                                ",
"  ............................  ",
"  ............................  ",
"                                ",
"                                "
};
