/* XPM */
static char *dummy[]={
"32 32 29 1",
". c None",
"m c #6e8ca4",
"o c #747b95",
"p c #8091a3",
"n c #8f906e",
"q c #919e84",
"r c #926966",
"l c #a3674f",
"t c #a3a490",
"k c #a58b74",
"a c #a77d46",
"u c #acbbc2",
"b c #b04e41",
"# c #b0875b",
"w c #b29695",
"v c #b56a6f",
"x c #b97b6c",
"s c #bcc8d8",
"y c #bd8f7f",
"f c #c5524f",
"h c #c95d51",
"j c #ca6052",
"c c #cda36e",
"A c #cf957d",
"d c #deb96b",
"g c #e86462",
"z c #eeaead",
"i c #f3775d",
"e c #f3c067",
"........##......................",
".......#aa#...........bb........",
"......#aaaa#..........bb........",
".....#aacdaa#........bbbb.......",
"....#aaceedaa#......bbffbb......",
"...#aaceeeedaa#.....bbggbb......",
"..#aaceeeeeedaa#...bbhiihbb.....",
".#aaceeeeeeeedaa#..bbiiiibb.....",
"#aaceeeeeeeeeedaa#bbjiiiijbb....",
".aaceeeeeeeeeedaaabbiiiiiibb....",
"..aaceeeeeeeedaa#bbgiiiiiigbb...",
"..kaaceeeeeedaa#lbbiiiiiiiifbb..",
"mmmnaaceeeedaanobbgiiiiiiiigbb..",
"mmppqaaceedaanprbfiiiiiiiiiifbb.",
"mmssstaacdaatsubbbbbbbbbbbbbbbb.",
"mmsssstaaaatssvbbbbbbbbbbbbbbbbb",
"mmssssstaatsssswxyzzzzzzzzzzyxx.",
"mmssssssttssssuxxzzzzzzzzzzzzxx.",
"mmsssssssssssswxAzzzzzzzzzzzzAxx",
"mmssssssssssssxxzzzzzzzzzzzzzzxx",
"mmssssssssssssxxzzzzzzzzzzzzzzxx",
"mmssssssssssssxxzzzzzzzzzzzzzzxx",
"mmssssssssssssxxzzzzzzzzzzzzzzxx",
"mmsssssssssssswxAzzzzzzzzzzzzAxx",
"mmssssssssssssuxxzzzzzzzzzzzzxx.",
"mmssssssssssssswxyzzzzzzzzzzyxx.",
"mmsssssssssssssuxxyzzzzzzzzyxx..",
"mmuuuuuuuuuuuuuupxxxAzzzzAxxx...",
"mmmmmmmmmmmmmmmmmpxxxxxxxxxx....",
"mmmmmmmmmmmmmmmmmm..xxxxxx......",
"................................",
"................................"};
