/* XPM */ static char *dummy[]={ "32 32 1 1", ". c None", "................................", "................................", "................................", "................................", "................................", "................................", "................................", "................................", "................................", "................................", "................................", "................................", "................................", "................................", "................................", "................................", "................................", "................................", "................................", "................................", "................................", "................................", "................................", "................................", "................................", "................................", "................................", "................................", "................................", "................................", "................................", "................................"};
