/* XPM */
static char *type_parameter[] = {
/* columns rows colors chars-per-pixel */
"32 32 59 1 ",
"  c None",
". c #AB8249",
"X c #AB8349",
"o c #AB834A",
"O c #AC8249",
"+ c #AC8349",
"@ c #AB8449",
"# c #AC8449",
"$ c #BC9050",
"% c #BD9051",
"& c #BD9151",
"* c #BE9151",
"= c #BE9251",
"- c #BF9251",
"; c #BF9252",
": c #BF9352",
"> c #C09352",
", c #C19352",
"< c #C09452",
"1 c #C19453",
"2 c #C29552",
"3 c #C29553",
"4 c #C39553",
"5 c #C49653",
"6 c #C39654",
"7 c #C49554",
"8 c #C59654",
"9 c #C59754",
"0 c #C69755",
"q c #C69855",
"w c #C79855",
"e c #C79955",
"r c #C99A55",
"t c #C89956",
"y c #CA9B56",
"u c #CA9B57",
"i c #CB9B57",
"p c #CB9C57",
"a c #CC9C57",
"s c #CD9D58",
"d c #CE9D58",
"f c #CE9E58",
"g c #CF9F58",
"h c #CF9E59",
"j c #D09F58",
"k c #D09F59",
"l c #F9BF6B",
"z c #FABF6B",
"x c #FAC06B",
"c c #FBC06B",
"v c #FBC16B",
"b c #FCC06C",
"n c #FCC16C",
"m c #FDC16C",
"M c #FDC26C",
"N c #FEC26C",
"B c #FEC26D",
"V c #FEC36D",
"C c #FFC36D",
/* pixels */
"                                ",
"                                ",
"                                ",
"                                ",
"          XX        XX          ",
"         XXXX      XXXX         ",
"        XXtkXX    XXktXX        ",
"       XXtCCgXX  XXgCCtXX       ",
"      XXtCCC>XX  XX:CCCtXX      ",
"     XXtCCC:XX    XX:CCCtXX     ",
"    XXtCCC>XX      XX:lCCtXX    ",
"   XXtCCC>XX        XX:lCCgXX   ",
"  XXtCCC:XX          XX:lCCgXX  ",
" XXgCCC:XX            XX:CCCgXX ",
"XXgCCC:XX              XX:CCCgXX",
"XX>CCC>XX              XX>CCC>XX",
" XX>CCC>XX            XX>CCC>XX ",
"  XX>CCC>XX          XX>CCC>XX  ",
"   XX>CCC>XX        XX>CCC>XX   ",
"    XX>CCC>XX      XX:CCC>XX    ",
"     XX>CCC>XX    XX>CCC>XX     ",
"      XXeCCC>XX  XX:CCCtXX      ",
"       XXeCCgXX  XXgCCeXX       ",
"        XXekXX    XXkeXX        ",
"         XXXX      XXXX         ",
"          XX        XX          ",
"                                ",
"                                ",
"                                ",
"                                ",
"                                ",
"                                "
};
