/* XPM */
static char *variable[] = {
/* columns rows colors chars-per-pixel */
"32 32 3 1 ",
"  c None",
". c #65727F",
"X c #DDE5EF",
/* pixels */
"                                ",
"                                ",
"                                ",
"                                ",
"      ......................    ",
"      ......................    ",
"      ..XXXXXXXXXXXXXXXXXX..    ",
"      ..XXXXXXXXXXXXXXXXXX..    ",
"      ..XXXXXXXXXXXXXXXXXX..    ",
"      ..XXXXXXXXXXXXXXXXXX..    ",
"      ..XXXXXXXXXXXXXXXXXX..    ",
"      ..XXXXXXXXXXXXXXXXXX..    ",
"      ..XXXXXXXXXXXXXXXXXX..    ",
"      ..XXXXXXXXXXXXXXXXXX..    ",
"      ..XXXXXXXXXXXXXXXXXX..    ",
"      ..XXXXXXXXXXXXXXXXXX..    ",
"      ..XXXXXXXXXXXXXXXXXX..    ",
"      ..XXXXXXXXXXXXXXXXXX..    ",
"      ..XXXXXXXXXXXXXXXXXX..    ",
"      ..XXXXXXXXXXXXXXXXXX..    ",
"      ..XXXXXXXXXXXXXXXXXX..    ",
"      ..XXXXXXXXXXXXXXXXXX..    ",
"      ..XXXXXXXXXXXXXXXXXX..    ",
"      ..XXXXXXXXXXXXXXXXXX..    ",
"      ......................    ",
"      ......................    ",
"                                ",
"                                ",
"                                ",
"                                ",
"                                ",
"                                "
};
